X:17402
T:Thomas' Waltz
S:Wendy \& Alan
R:Waltz
O:Sweden
M:3/4
K:ADor
A2 c2 e2|g4 fg|ga f2 d2|ef ed cB|\
AB cd ef|g4 fg|ga f2 d2|e6::
a2ec eg|f2 ed c2|B2 AG AB|AB cd e2|\
a2ec eg|f2 ed c2|B2 AG AB|A6:|
